vendor/shopware/storefront/Resources/app/storefront/dist/assets/icon/default/underline.svg

<svg xmlns="http://www.w3.org/2000/svg" width="24" height="24" viewBox="0 0 24 24">
  <path fill="#758CA3" fill-rule="evenodd" d="M19.9911925,11.8666959 C19.9970015,11.9103049 20,11.9548023 20,12 L20,18 C20,18.5522847 19.5522847,19 19,19 C18.4477153,19 18,18.5522847 18,18 L18,16.5990685 C16.630255,18.075822 14.6730542,19 12.5,19 C8.35786438,19 5,15.6421356 5,11.5 L5,3 C4.44771525,3 4,2.55228475 4,2 C4,1.44771525 4.44771525,1 5,1 L7,1 C7.55228475,1 8,1.44771525 8,2 C8,2.55228475 7.55228475,3 7,3 L7,11.5 C7,14.5375661 9.46243388,17 12.5,17 C15.5375661,17 18,14.5375661 18,11.5 L18,3 C17.4477153,3 17,2.55228475 17,2 C17,1.44771525 17.4477153,1 18,1 L20,1 C20.5522847,1 21,1.44771525 21,2 C21,2.55228475 20.5522847,3 20,3 L20,11.5 C20,11.6229453 19.9970417,11.7451997 19.9911925,11.8666959 Z M5,23 C4.44771525,23 4,22.5522847 4,22 C4,21.4477153 4.44771525,21 5,21 L20,21 C20.5522847,21 21,21.4477153 21,22 C21,22.5522847 20.5522847,23 20,23 L5,23 Z"/>
</svg>

<svg xmlns="http://www.w3.org/2000/svg" width="24" height="24" viewBox="0 0 24 24"><path fill="#758CA3" fill-rule="evenodd" d="M19.9912 11.8667c.0058.0436.0088.0881.0088.1333v6c0 .5523-.4477 1-1 1s-1-.4477-1-1v-1.401C16.6303 18.0759 14.673 19 12.5 19 8.3579 19 5 15.6421 5 11.5V3c-.5523 0-1-.4477-1-1s.4477-1 1-1h2c.5523 0 1 .4477 1 1s-.4477 1-1 1v8.5c0 3.0376 2.4624 5.5 5.5 5.5s5.5-2.4624 5.5-5.5V3c-.5523 0-1-.4477-1-1s.4477-1 1-1h2c.5523 0 1 .4477 1 1s-.4477 1-1 1v8.5c0 .123-.003.2452-.0088.3667zM5 23c-.5523 0-1-.4477-1-1s.4477-1 1-1h15c.5523 0 1 .4477 1 1s-.4477 1-1 1H5z"/></svg>
